build/svg/cmd/sc_graphicfiltersolarize.svg

<?xml version="1.0" encoding="UTF-8" standalone="no"?>
<svg
   xmlns:dc="http://purl.org/dc/elements/1.1/"
   xmlns:cc="http://creativecommons.org/ns#"
   xmlns:rdf="http://www.w3.org/1999/02/22-rdf-syntax-ns#"
   xmlns:svg="http://www.w3.org/2000/svg"
   xmlns="http://www.w3.org/2000/svg"
   xmlns:sodipodi="http://sodipodi.sourceforge.net/DTD/sodipodi-0.dtd"
   xmlns:inkscape="http://www.inkscape.org/namespaces/inkscape"
   viewBox="0 0 16 16"
   version="1.1"
   id="svg6"
   sodipodi:docname="sc_graphicfiltersolarize.svg"
   inkscape:version="0.92.4 (5da689c313, 2019-01-14)"
   inkscape:export-filename="/home/jupiter007/Libreoffice yaru theme fullcolor/build/cmd/sc_graphicfiltersolarize.png"
   inkscape:export-xdpi="95"
   inkscape:export-ydpi="95">
  <metadata
     id="metadata12">
    <rdf:RDF>
      <cc:Work
         rdf:about="">
        <dc:format>image/svg+xml</dc:format>
        <dc:type
           rdf:resource="http://purl.org/dc/dcmitype/StillImage" />
      </cc:Work>
    </rdf:RDF>
  </metadata>
  <defs
     id="defs10" />
  <sodipodi:namedview
     pagecolor="#ffffff"
     bordercolor="#666666"
     borderopacity="1"
     objecttolerance="10"
     gridtolerance="10"
     guidetolerance="10"
     inkscape:pageopacity="0"
     inkscape:pageshadow="2"
     inkscape:window-width="1920"
     inkscape:window-height="1011"
     id="namedview8"
     showgrid="true"
     inkscape:zoom="41.7193"
     inkscape:cx="2.547402"
     inkscape:cy="8.4414838"
     inkscape:window-x="0"
     inkscape:window-y="32"
     inkscape:window-maximized="1"
     inkscape:current-layer="svg6">
    <inkscape:grid
       type="xygrid"
       id="grid822" />
  </sodipodi:namedview>
  <path
     style="fill:#000000;fill-opacity:1;stroke:#000000;opacity:0.6;stroke-linejoin:round;stroke-width:2;stroke-miterlimit:4;stroke-dasharray:none"
     d="m 13,7.5 v 1 h 1 v -1 z M 7.5,13 v 1 h 1 v -1 z m 4.34375,-1.84375 c -0.20379,0.24694 -0.44056,0.48371 -0.6875,0.6875 L 11.875,12.5625 c 0.2479,-0.21074 0.47676,-0.4396 0.6875,-0.6875 z m -7.6875,0 L 3.4375,11.875 c 0.21075,0.2479 0.4396,0.47676 0.6875,0.6875 L 4.84375,11.84375 C 4.59681,11.63996 4.36004,11.40319 4.15625,11.15625 Z M 2,7.5 v 1 h 1 v -1 z M 8,4 C 5.79086,4 4,5.79086 4,8 c 0,2.20914 1.79086,4 4,4 2.20914,0 4,-1.79086 4,-4 C 12,5.79086 10.20914,4 8,4 Z m 3.875,-0.5625 -0.71875,0.71875 c 0.24694,0.20379 0.48371,0.44056 0.6875,0.6875 L 12.5625,4.125 C 12.35176,3.8771 12.1229,3.64825 11.875,3.4375 Z m -7.75,0 C 3.8771,3.64825 3.64825,3.8771 3.4375,4.125 L 4.15625,4.84375 C 4.36004,4.59681 4.59681,4.36004 4.84375,4.15625 Z M 7.5,2 v 1 h 1 V 2 Z"
     id="path816" />
  <path
     id="path840"
     d="m 13,7.5 v 1 h 1 v -1 z M 7.5,13 v 1 h 1 v -1 z m 4.34375,-1.84375 c -0.20379,0.24694 -0.44056,0.48371 -0.6875,0.6875 L 11.875,12.5625 c 0.2479,-0.21074 0.47676,-0.4396 0.6875,-0.6875 z m -7.6875,0 L 3.4375,11.875 c 0.21075,0.2479 0.4396,0.47676 0.6875,0.6875 L 4.84375,11.84375 C 4.59681,11.63996 4.36004,11.40319 4.15625,11.15625 Z M 2,7.5 v 1 h 1 v -1 z M 8,4 C 5.79086,4 4,5.79086 4,8 c 0,2.20914 1.79086,4 4,4 2.20914,0 4,-1.79086 4,-4 C 12,5.79086 10.20914,4 8,4 Z m 3.875,-0.5625 -0.71875,0.71875 c 0.24694,0.20379 0.48371,0.44056 0.6875,0.6875 L 12.5625,4.125 C 12.35176,3.8771 12.1229,3.64825 11.875,3.4375 Z m -7.75,0 C 3.8771,3.64825 3.64825,3.8771 3.4375,4.125 L 4.15625,4.84375 C 4.36004,4.59681 4.59681,4.36004 4.84375,4.15625 Z M 7.5,2 v 1 h 1 V 2 Z"
     style="fill:#ffffff;fill-opacity:1" />
</svg>

<svg xmlns="http://www.w3.org/2000/svg" viewBox="0 0 16 16"><path d="M13 7.5v1h1v-1zM7.5 13v1h1v-1zm4.344-1.844c-.204.247-.44.484-.688.688l.719.719c.248-.211.477-.44.688-.688zm-7.688 0l-.718.719c.21.248.44.477.687.688l.719-.72a5.175 5.175 0 01-.688-.687zM2 7.5v1h1v-1zM8 4a4 4 0 100 8 4 4 0 000-8zm3.875-.563l-.719.72c.247.203.484.44.688.687l.719-.719a6.007 6.007 0 00-.688-.688zm-7.75 0c-.248.211-.477.44-.688.688l.72.719c.203-.247.44-.484.687-.688zM7.5 2v1h1V2z" stroke="#000" opacity=".6" stroke-linejoin="round" stroke-width="2"/><path d="M13 7.5v1h1v-1zM7.5 13v1h1v-1zm4.344-1.844c-.204.247-.44.484-.688.688l.719.719c.248-.211.477-.44.688-.688zm-7.688 0l-.718.719c.21.248.44.477.687.688l.719-.72a5.175 5.175 0 01-.688-.687zM2 7.5v1h1v-1zM8 4a4 4 0 100 8 4 4 0 000-8zm3.875-.563l-.719.72c.247.203.484.44.688.687l.719-.719a6.007 6.007 0 00-.688-.688zm-7.75 0c-.248.211-.477.44-.688.688l.72.719c.203-.247.44-.484.687-.688zM7.5 2v1h1V2z" fill="#fff"/></svg>
